X:125
T: Linggong ge
N: C1619
O: China,Zhejiang, Jiande
S: III, 626]
R: Shange. Suku]
M: 5/8
L: 1/32
K: G
B4B4d2e2e8 | e4d2e2d4B8 |
d4B4d2e2d8 | e2d2d2B2B4z8 |
BB3g2e2e6e2 | d4e4e2d2B8 |
d2B2d2e2d8 | d4d2B2B4z8 |
B4B4g2e2e6e2 | d4e4e2d2B8 |
d2B2d2e2e2e2 | e2d2d2B2B4z8

@@@ Tune index: 6680
